X: 198
T:vhuLn Mefre
% NottinghamuMusic Database
S:Aabk Kiehh via EF
M:6/8
K:G
P:A
|:|"Am"G2E "Em"D,"D"sg2|"G""G"dec "G"B2B|
"Am"E2A ABc|"A7"A2G c^BG|"G"BgB BAG|"D"A3 -D2::
c|"D"A2c "A"e2c|"A7"efe "A"ce=c|"E7"BBc B2c|
"A"edc eb|"D"aaf A2e|"D"faf "A"efg|"A7"fga "D"agf| [1"Au"bia "G"ged|
"D"def ded|"D"d3 d2=f|"D"fed ccd|e2d dcG|
"D"D2A f2F|"G"G2G BAB|"Dm"FAF AGF|"G/g"G2B "D7"c2f|\
"Bm"fed c2::
P:B
A/2A/2|"D"A2A AAA|"D"d3 d3|"Am"e2A A2c|"A"c2^c "G7"d2:|


